public/images/twitter-logo.svg

<svg xmlns="http://www.w3.org/2000/svg" xmlns:xlink="http://www.w3.org/1999/xlink" width="24" height="24"><defs><path d="M12.04.29C5.55.29.29 5.55.29 12.04c0 6.5 5.26 11.76 11.75 11.76 6.5 0 11.76-5.26 11.76-11.76C23.8 5.55 18.54.29 12.04.29z" id="a"/><path d="M9.84 18.22c5.23 0 8.09-4.33 8.09-8.09v-.37c.55-.4 1.04-.9 1.42-1.47-.51.22-1.06.38-1.63.45.59-.36 1.03-.91 1.25-1.58-.55.33-1.16.56-1.81.69-.52-.55-1.26-.89-2.08-.89-1.56 0-2.84 1.27-2.84 2.84 0 .22.03.44.08.65a8.06 8.06 0 0 1-5.86-2.97c-.25.41-.39.9-.39 1.42 0 .99.5 1.86 1.27 2.37-.47-.01-.9-.14-1.29-.36v.04c0 1.38.98 2.52 2.29 2.79-.24.06-.49.1-.75.1-.19 0-.36-.02-.54-.05a2.835 2.835 0 0 0 2.66 1.97 5.746 5.746 0 0 1-4.22 1.18c1.25.81 2.75 1.28 4.35 1.28" id="b"/></defs><use xlink:href="#a" fill="#54D1DB"/><use xlink:href="#a" fill-opacity="0" stroke="#000" stroke-opacity="0"/><g><use xlink:href="#b" fill="#fff"/><use xlink:href="#b" fill-opacity="0" stroke="#000" stroke-opacity="0"/></g></svg>

<?xml version="1.0" encoding="UTF-8" standalone="no"?>
<!DOCTYPE svg PUBLIC "-//W3C//DTD SVG 1.1//EN" "http://www.w3.org/Graphics/SVG/1.1/DTD/svg11.dtd">
<svg version="1.1" xmlns="http://www.w3.org/2000/svg" xmlns:xlink="http://www.w3.org/1999/xlink" preserveAspectRatio="xMidYMid meet" viewBox="0 0 24 24" width="24" height="24"><defs><path d="M12.04 0.29C5.55 0.29 0.29 5.55 0.29 12.04C0.29 18.54 5.55 23.8 12.04 23.8C18.54 23.8 23.8 18.54 23.8 12.04C23.8 5.55 18.54 0.29 12.04 0.29Z" id="i2glFm64UD"></path><path d="M9.84 18.22C15.07 18.22 17.93 13.89 17.93 10.13C17.93 10.01 17.93 9.88 17.93 9.76C18.48 9.36 18.97 8.86 19.35 8.29C18.84 8.51 18.29 8.67 17.72 8.74C18.31 8.38 18.75 7.83 18.97 7.16C18.42 7.49 17.81 7.72 17.16 7.85C16.64 7.3 15.9 6.96 15.08 6.96C13.52 6.96 12.24 8.23 12.24 9.8C12.24 10.02 12.27 10.24 12.32 10.45C9.95 10.33 7.86 9.2 6.46 7.48C6.21 7.89 6.07 8.38 6.07 8.9C6.07 9.89 6.57 10.76 7.34 11.27C6.87 11.26 6.44 11.13 6.05 10.91C6.05 10.92 6.05 10.95 6.05 10.95C6.05 12.33 7.03 13.47 8.34 13.74C8.1 13.8 7.85 13.84 7.59 13.84C7.4 13.84 7.23 13.82 7.05 13.79C7.41 14.92 8.46 15.74 9.71 15.76C8.73 16.52 7.51 16.98 6.17 16.98C5.94 16.98 5.72 16.97 5.49 16.94C6.74 17.75 8.24 18.22 9.84 18.22" id="aJjsBTBEm"></path></defs><g><g><g><use xlink:href="#i2glFm64UD" opacity="1" fill="#54D1DB" fill-opacity="1"></use><g><use xlink:href="#i2glFm64UD" opacity="1" fill-opacity="0" stroke="#000000" stroke-width="1" stroke-opacity="0"></use></g></g><g><use xlink:href="#aJjsBTBEm" opacity="1" fill="#ffffff" fill-opacity="1"></use><g><use xlink:href="#aJjsBTBEm" opacity="1" fill-opacity="0" stroke="#000000" stroke-width="1" stroke-opacity="0"></use></g></g></g></g></svg>
